X:1
T:Willie Ransome
M:6/8
L:1/8
K:C
 D/2D/2| G2 G/2G/2 BA G/2G/2| BAG B2 G/2G/2|B-G G/2G/2 EDD| EGA G2|\
 G/2G/2| BG G/2G/2 ED D/2D/2| EGA G2 G/2G/2| BGG/2-G/2E-D D/2D/2| EGA G2||\
